X:167
T:I Need Thee Every Hour
%%stretchlast false
M:3/4
L:1/4
K:G clef=C1
"^I"[G,,D,B,G] [G,,G,DB]3/2 "^ii¹"[C,E,CA]/ | "^I²"[D,B,G]/ "^V"[D,A,F]/ "^I"[G,,D,B,G]2 | [G,,D,B,G] "^IV"[C,E,CG]3/2 "^ii¹"[C,E,CA]/ | "^IV"[C,E,CG]/ [C,G,CE]/ "^I"[G,,G,B,D]2 | "^V"[D,F,D] [D,F,DA]3/2 "^I²"[D,G,DB]/ | "^V"[D,F,DA]/ [D,F,D]/ "^I"[G,DB]2 | [G,,B,DG] "^V²"[A,,A,DF]3/2 "^ii7"[A,,A,EG]/ | "^V²"[A,,A,DF]/ "^II7"[A,,G,^CE]/ "^V"[D,F,D]2 | "^I"[G,DGB] [G,DGB]3/2 [G,B,DG]/ | "^IV²"[G,EGc]/ "^I"[G,DGB]/ "^I²"[D,DGB] "^V"[D,DFA]2 | [D,CDA]3/2 "^I²"[D,B,DG]/ | "^iii¹"[D,DB]/ "^v7"[D,CDA]/ [G,,CDA] "^I"[G,,B,DG] | "^I¹"[B,,G,DG] "^IV"[C,G,EG]3/2 "^ii7¹"[C,G,EA]/ | "^IV"[C,G,EG]/ [C,G,CE]/ "^I"[G,,G,B,D] "^I¹"[B,,G,DG] | "^ii7¹"[C,G,EA] "^I²"[D,G,DB]3/2 [D,G,B,G]/ | "^V7"[D,F,CA] "^I"[G,,G,B,G]2 |]
